X: 13
%%titlespace -50
%%musicspace -20
T: Ffaniglen
M: 4/4
L: 1/4
K: Dmaj
A>G|"D" FD DD|DF Ad|"A" cA AA|Ac eg|
"D" f>e dc|"G" Bg gf|"E" e/f/e/d/ c/d/c/B/|"A" A/B/A/G/ F/G/F/E/|
"D"!segno! FD DD|D/E/F/G/ A/B/c/d/|"A" cA AA|A/B/c/d/ e/f/g/a/|
"D" fd dc|"G" Bg "A" ec|"D" d2 f2|d2 !fine!
f>g|"D" af fd|fd fa|"A" ge ec|ec eg|
"D" f>e dc|"G" B g2 f|"E" e/f/e/d/ c/d/c/B/|"A" A/B/A/G/ F/G/F/E/!D.S.!

